X: 1170
T: An Chúilfhionn March
R: polka
M: 2/4
K: Gmajor
|:Bd|g>f gb|ab gG|Bd g>f|gb ab|g>a gf|
e>f ef/g/|a/g/f/e/ d>c|Bd gd|f/e/d/c/ BG|AF GB|GB G2:|
|:d>c|BA GF|GA Bc|d^c de|fdg>f|
gb ab|g>a gf|e>f ef/g/|a/g/f/e/ d>c|
Bd gd|f/e/d/c/ BG|AF GB|GB G2:|

